Papirus/64x64/apps/pulsar.svg

<svg id="svg24" width="64" height="64" version="1.1" xmlns="http://www.w3.org/2000/svg">
 <circle id="circle2" cx="31.999996" cy="33" r="28" style="opacity:.2"/>
 <circle id="circle4" transform="translate(-3.231664e-6)" cx="32" cy="32" r="28" style="fill:#6a1b9a"/>
 <path id="path9" transform="translate(-3.231664e-6)" d="m32.000003 4a28 28 0 0 0-28 28 28 28 0 0 0 0.0351563 0.5 28 28 0 0 1 27.964844-27.5 28 28 0 0 1 27.982422 27.251953 28 28 0 0 0 0.017578-0.251953 28 28 0 0 0-28-28z" style="fill:#ffffff;opacity:.2"/>
 <path id="path11" transform="translate(-3.231664e-6)" d="m52.027347 12.441406-12.392578 10.384766-1.113281 2.861328c-0.16802-0.06313-0.357854-0.105469-0.546875-0.105469-0.357041 0-0.713298 0.148324-0.986329 0.421875-0.546062 0.547104-0.546062 1.450945 0 1.998047 0.273031 0.273552 0.62977 0.421875 1.007813 0.421875 0.357041 0 0.713779-0.148323 1.007812-0.421875 0.420046-0.420848 0.524477-1.030138 0.314454-1.535156l2.857421-1.115235 10.369141-12.365234a28 28 0 0 0-0.517578-0.544922zm-28.302734 0.558594c-3.347902 0.018759-6.335252 1.065395-8.496094 3.21875-2.950089 2.948318-3.911903 7.487108-2.740235 12.777344 0.306404 1.348672 0.743861 2.705534 1.300782 4.052734-2.331008 6.110891-2.450954 11.797518 0.039062 14.953125l1.212891-1.441406c-1.642668-2.980934-1.645351-7.030126-0.21875-11.294922 1.138721 2.206278 2.591572 4.361585 4.320312 6.380859l1.150391-1.380859c-1.921131-2.301348-3.476973-4.759249-4.591797-7.25 1.462819-3.284808 3.732212-6.610966 6.726563-9.603516 2.931794-2.930011 6.228791-5.227189 9.58789-6.71289 2.447315 1.096837 4.916397 2.641838 7.253906 4.601562l1.38086-1.15039c-2.055105-1.7501-4.221283-3.191822-6.404297-4.3125 0.720082-0.238621 1.439693-0.442735 2.15625-0.601563 3.598695-0.815457 6.779443-0.522398 9.185547 0.794922l1.443359-1.212891c-1.970649-1.250699-4.396068-1.869605-7.126953-1.814453-1.241313 0.02504-2.545003 0.188979-3.898437 0.496094-1.342316 0.299939-2.693209 0.73355-4.035157 1.285156-2.819944-1.192691-5.64217-1.799746-8.246093-1.785156zm-0.078125 1.753906c1.914658-0.01999 3.986188 0.340336 6.111328 1.056641-3.027766 1.556445-5.958557 3.709398-8.585938 6.347656-2.689787 2.688149-4.819916 5.644033-6.345703 8.630859-0.2474-0.731603-0.45739-1.463695-0.623047-2.191406-1.046131-4.662918-0.250951-8.613862 2.259766-11.123047 1.812424-1.811311 4.322993-2.690927 7.183594-2.720703zm26.544921 3.222656-1.21289 1.441407c1.004284 1.840098 1.400068 4.141547 1.169922 6.734375 0.523064 0.836394 1.005376 1.651886 1.423828 2.488281 0.878753-4.181994 0.397567-7.883052-1.38086-10.664063zm-18.232421 4.023438c-6.051026 0-10.958985 4.943887-10.958985 11.041016 0 2.137152 0.603574 4.107531 1.664063 5.804687l0.603515-0.230469c0.103968-0.62858 0.373876-1.194768 0.810547-1.634765 0.08318-0.08381 0.187046-0.167594 0.291016-0.230469-0.540638-1.131409-0.873047-2.387523-0.873047-3.728516 0-4.714241 3.803796-8.548828 8.482422-8.548828 1.330811 0 2.578304 0.313181 3.701172 0.878906 0.08317-0.104748 0.147293-0.209177 0.230468-0.292968 0.436673-0.440019 0.977058-0.71111 1.580079-0.794922l0.228515-0.609375c-1.684305-1.047619-3.638789-1.654297-5.759765-1.654297zm12.896484 2.332031-1.150391 1.38086c1.961907 2.33733 3.507863 4.806814 4.605469 7.255859l-0.044922 0.103516c-1.506434 3.345598-3.807427 6.650361-6.673828 9.49414-4.205452 4.20291-9.164352 7.10933-13.976562 8.175782-3.598693 0.815478-6.779442 0.521808-9.185547-0.816407l-1.44336 1.212891c1.903961 1.233718 4.421216 1.861328 7.015625 1.861328 1.33905 0 2.547135-0.188863 4.011719-0.523438 5.146973-1.15001 10.419304-4.223304 14.833984-8.65625 2.609294-2.607683 4.781856-5.553384 6.34961-8.597656 1.788215 5.301767 1.36171 10.270415-1.664063 13.28125-2.280571 2.279211-5.857315 3.137836-10 2.46875-0.774137 0.480883-1.570174 0.919105-2.365234 1.316406 1.757503 0.460009 3.431364 0.710938 5.021484 0.710938 3.473159 0 6.465497-1.087926 8.59961-3.220703 5.523577-5.541167 3.661327-16.518709-3.933594-25.447266zm-3.498047 2.822266-0.603516 0.230469c-0.124762 0.628579-0.395361 1.194748-0.832031 1.634765-0.08318 0.08381-0.187044 0.167615-0.291015 0.230469 0.540644 1.131431 0.875 2.387566 0.875 3.728516 0 4.714284-3.805746 8.548828-8.484375 8.548828-1.330807 0-2.5783-0.313181-3.701172-0.878906-0.08318 0.10479-0.145342 0.209134-0.228516 0.292968-0.436675 0.439997-0.979009 0.71111-1.582031 0.794922l-0.228516 0.609375c1.684307 1.047618 3.638786 1.654297 5.759766 1.654297 6.051025 0 10.958984-4.943845 10.958984-11.041016 0-2.137111-0.60288-4.107552-1.642578-5.804687zm-9.357422 0.845703a5.0000021 4.9999999 0 0 0-5 5 5.0000021 4.9999999 0 0 0 5 5 5.0000021 4.9999999 0 0 0 5-5 5.0000021 4.9999999 0 0 0-5-5zm-5.996094 9.576172c-0.35704 0-0.713779 0.148323-1.007812 0.421875-0.420047 0.420848-0.52643 1.030138-0.316406 1.535156l-2.855469 1.115235-9.429688 11.242187a28 28 0 0 0 0.708985 0.708984l11.220703-9.447265 1.113281-2.861328c0.16802 0.06313 0.3559 0.105468 0.544922 0.105468 0.357041 0 0.713297-0.148323 0.986328-0.421875 0.546063-0.547103 0.546063-1.450943 0-1.998047-0.252029-0.273551-0.607805-0.40039-0.964844-0.40039zm-1.27539 7.080078-1.38086 1.150391c1.213516 1.045493 2.490467 1.986439 3.808594 2.84375 0.502145-0.167266 1.546957-0.585597 1.986328-0.857422-1.631965-0.940934-2.907632-1.882106-4.414062-3.136719z" style="opacity:.2"/>
 <path id="ellipse13" class="st1" transform="matrix(.21002416 0 0 .21042453 217.79776 339.94577)" d="m-781.09925-1568.0005-67.19837 56.2015-5.30073 13.5979c-0.8-0.3-1.70386-0.5013-2.60386-0.5013-1.7 0-3.39626 0.7049-4.69626 2.0049-2.6 2.6-2.6 6.8953 0 9.4953 1.3 1.3 2.99855 2.0049 4.79855 2.0049 1.7 0 3.39856-0.7049 4.79856-2.0049 1.99999-2 2.49722-4.8955 1.49722-7.2955l13.60521-5.2999 56.29932-67.0056-1.19964-1.1973zm-65.91503 9.5232c-5.91034 0.119-12.11766 0.898-18.56185 2.3575-6.39125 1.4254-12.82332 3.4861-19.21282 6.1075-30.68977-12.9555-61.42478-11.3799-79.71554 6.8128-14.04644 14.0113-18.62597 35.581-13.04723 60.7218 1.4589 6.4093 3.54178 12.8575 6.19348 19.2598-11.09877 29.0408-11.66989 56.0653 0.18599 71.0617l5.77501-6.85c-7.82133-14.1663-7.83411-33.4092-1.04155-53.6768 5.42186 10.4849 12.33939 20.7275 20.57055 30.3237l5.47742-6.5622c-9.1472-10.9367-16.5551-22.6174-21.86318-34.4542 6.96501-15.6104 17.77037-31.4173 32.02756-45.6388 13.95933-13.9243 29.65748-24.8411 45.65137-31.9016 11.65255 5.2125 23.40871 12.5548 34.53844 21.868l6.57477-5.467c-9.7851-8.317-20.09903-15.1685-30.49315-20.4943 3.42857-1.134 6.85489-2.104 10.26668-2.8588 17.13469-3.8753 32.27934-2.4826 43.73567 3.7777l6.87235-5.764c-9.38298-5.9437-20.93124-8.8849-33.93397-8.6228zm-77.40925 8.3165c9.11638-0.095 18.97965 1.6173 29.09821 5.0214-14.41629 7.3967-28.3708 17.6282-40.88071 30.166-12.80705 12.7749-22.94934 26.8221-30.21416 41.0164-1.17796-3.4768-2.1778-6.9559-2.96655-10.4142-4.98101-22.1596-1.19488-40.9356 10.75955-52.86 8.62961-8.6079 20.58331-12.7881 34.20366-12.9296zm126.38985 15.315-5.77501 6.85c4.78176 8.7447 6.66623 19.6818 5.57042 32.0037 2.4905 3.9748 4.78695 7.8503 6.77935 11.8251 4.18406-19.8741 1.89297-37.4626-6.57476-50.6788zm-86.81107 19.1206c-28.81112 0-52.17964 23.4948-52.17964 52.4702 0 10.1564 2.87383 19.5202 7.9232 27.5856l2.87355-1.0953c0.49503-2.9872 1.78015-5.6779 3.8593-7.7689 0.39603-0.3983 0.89059-0.7964 1.38563-1.0952-2.57417-5.3768-4.15688-11.3463-4.15688-17.7191 0-22.4035 18.1112-40.6265 40.38783-40.6265 6.33647 0 12.27622 1.4883 17.6226 4.1768 0.39603-0.4978 0.70132-0.9941 1.09735-1.3923 2.07916-2.0911 4.65211-3.3794 7.52331-3.7777l1.08805-2.8959c-8.01959-4.9786-17.32556-7.8617-27.4243-7.8617zm61.40476 11.0825-5.47742 6.5622c9.34135 11.1077 16.70218 22.8434 21.92828 34.482l-0.21388 0.492c-7.17268 15.8993-18.12851 31.6045-31.77648 45.119-20.02368 19.9735-43.63474 33.7856-66.54741 38.8537-17.13468 3.8754-32.27932 2.4798-43.73566-3.8798l-6.87235 5.764c9.06545 5.863 21.05097 8.8456 33.40389 8.8456 6.3757 0 12.12781-0.8975 19.10123-2.4875 24.5066-5.4652 49.61-20.0704 70.62989-41.1371 12.42379-12.3925 22.76812-26.3913 30.23276-40.8586 8.51434 25.1956 6.4836 48.808-7.9232 63.1164-10.85863 10.8315-27.88875 14.912-47.61357 11.7323-3.68595 2.2853-7.47615 4.3678-11.26172 6.2559 8.36811 2.1861 16.33794 3.3786 23.90908 3.3786 16.53696 0 30.78453-5.1701 40.94581-15.3057 26.29975-26.3333 17.43292-78.5018-18.72925-120.933zm-16.65545 13.4122-2.87355 1.0953c-0.59404 2.9872-1.88246 5.6778-3.9616 7.7689-0.39603 0.3983-0.89059 0.7965-1.38563 1.0952 2.5742 5.3769 4.16619 11.3464 4.16619 17.719 0 22.4037-18.12049 40.6266-40.39714 40.6266-6.33645 0-12.2762-1.4883-17.6226-4.1768-0.39604 0.498-0.69202 0.9939-1.08804 1.3923-2.07917 2.091-4.66141 3.3794-7.53262 3.7777l-1.08804 2.8959c8.01959 4.9786 17.32555 7.8617 27.4243 7.8617 28.81112 0 52.17964-23.4946 52.17964-52.4702 0-10.1562-2.87053-19.5203-7.82091-27.5856zm-44.55402 4.0191a23.806795 23.761488 0 0 0-23.80679 23.7614 23.806795 23.761488 0 0 0 23.80679 23.7615 23.806795 23.761488 0 0 0 23.80678-23.7615 23.806795 23.761488 0 0 0-23.80678-23.7614zm-28.54954 45.5088c-1.7 0-3.39856 0.7048-4.79856 2.0048-1.99999 2-2.50652 4.8956-1.50652 7.2956l-13.59591 5.2999-56.29932 67.0055 1.19963 1.1974 67.00308-56.3036 5.30073-13.5979c0.8 0.3 1.69457 0.5012 2.59457 0.5012 1.7 0 3.39626-0.7048 4.69626-2.0048 2.6-2.6 2.6-6.8954 0-9.4954-1.2-1.3-2.89397-1.9027-4.59396-1.9027zm-6.07259 33.6466-6.57477 5.467c5.77799 4.9685 11.858 9.4402 18.13408 13.5144 2.39089-0.7949 7.3656-2.783 9.45761-4.0748-7.77038-4.4716-13.84426-8.9443-21.01692-14.9066z" style="fill:#ffffff"/>
</svg>

<svg xmlns="http://www.w3.org/2000/svg" width="64" height="64" version="1.1">
 <circle style="opacity:0.2" cx="32" cy="33" r="28"/>
 <circle style="fill:#6a1b9a" cx="32" cy="32" r="28"/>
 <path style="opacity:0.1;fill:#ffffff" d="M 32,4 A 28,28 0 0 0 4,32 28,28 0 0 0 4.0352,32.5 28,28 0 0 1 32,5 28,28 0 0 1 59.982,32.252 28,28 0 0 0 60,32 28,28 0 0 0 32,4 Z"/>
 <path style="opacity:0.2" d="M 52.027,12.441 39.635,22.826 38.521,25.687 C 38.353,25.624 38.164,25.582 37.975,25.582 37.618,25.582 37.261,25.73 36.988,26.004 36.442,26.551 36.442,27.455 36.988,28.002 37.261,28.276 37.618,28.424 37.996,28.424 38.353,28.424 38.71,28.276 39.004,28.002 39.424,27.581 39.528,26.972 39.318,26.467 L 42.176,25.352 52.545,12.986 A 28,28 0 0 0 52.027,12.441 Z M 23.725,13 C 20.377,13.019 17.389,14.065 15.229,16.219 12.278,19.167 11.317,23.706 12.488,28.996 12.795,30.345 13.232,31.702 13.789,33.049 11.458,39.16 11.338,44.846 13.828,48.002 L 15.041,46.561 C 13.398,43.58 13.396,39.53 14.822,35.266 15.961,37.472 17.414,39.627 19.143,41.646 L 20.293,40.266 C 18.372,37.964 16.816,35.506 15.701,33.016 17.164,29.731 19.433,26.405 22.428,23.412 25.36,20.482 28.657,18.185 32.016,16.699 34.463,17.796 36.932,19.341 39.27,21.301 L 40.65,20.15 C 38.595,18.4 36.429,16.959 34.246,15.838 34.966,15.599 35.686,15.395 36.402,15.236 40.001,14.421 43.182,14.714 45.588,16.031 L 47.031,14.818 C 45.061,13.568 42.635,12.949 39.904,13.004 38.663,13.029 37.359,13.193 36.006,13.5 34.664,13.8 33.313,14.234 31.971,14.785 29.151,13.592 26.329,12.985 23.725,13 Z M 23.646,14.754 C 25.561,14.734 27.633,15.094 29.758,15.811 26.73,17.367 23.799,19.52 21.172,22.158 18.482,24.846 16.352,27.802 14.826,30.789 14.579,30.057 14.369,29.325 14.203,28.598 13.157,23.935 13.952,19.984 16.463,17.475 18.275,15.663 20.786,14.784 23.646,14.754 Z M 50.191,17.977 48.979,19.418 C 49.983,21.258 50.379,23.56 50.148,26.152 50.672,26.989 51.154,27.804 51.572,28.641 52.451,24.459 51.97,20.758 50.191,17.977 Z M 31.959,22 C 25.908,22 21,26.944 21,33.041 21,35.178 21.604,37.149 22.664,38.846 L 23.268,38.615 C 23.372,37.987 23.641,37.42 24.078,36.98 24.161,36.897 24.265,36.813 24.369,36.75 23.829,35.619 23.496,34.362 23.496,33.021 23.496,28.307 27.3,24.473 31.979,24.473 33.309,24.473 34.557,24.786 35.68,25.352 35.763,25.247 35.827,25.142 35.91,25.059 36.347,24.619 36.887,24.347 37.49,24.264 L 37.719,23.654 C 36.034,22.607 34.08,22 31.959,22 Z M 44.855,24.332 43.705,25.713 C 45.667,28.05 47.213,30.52 48.311,32.969 L 48.266,33.072 C 46.759,36.418 44.458,39.723 41.592,42.566 37.386,46.769 32.427,49.676 27.615,50.742 24.017,51.558 20.836,51.264 18.43,49.926 L 16.986,51.139 C 18.89,52.372 21.408,53 24.002,53 25.341,53 26.549,52.811 28.014,52.477 33.161,51.327 38.433,48.253 42.848,43.82 45.457,41.213 47.63,38.267 49.197,35.223 50.985,40.524 50.559,45.493 47.533,48.504 45.253,50.783 41.676,51.642 37.533,50.973 36.759,51.454 35.963,51.892 35.168,52.289 36.925,52.749 38.599,53 40.189,53 43.663,53 46.655,51.912 48.789,49.779 54.313,44.238 52.45,33.261 44.855,24.332 Z M 41.357,27.154 40.754,27.385 C 40.629,28.013 40.359,28.58 39.922,29.02 39.839,29.103 39.735,29.187 39.631,29.25 40.172,30.381 40.506,31.638 40.506,32.979 40.506,37.693 36.7,41.527 32.021,41.527 30.691,41.527 29.443,41.214 28.32,40.648 28.237,40.753 28.175,40.858 28.092,40.941 27.655,41.381 27.113,41.653 26.51,41.736 L 26.281,42.346 C 27.966,43.393 29.92,44 32.041,44 38.092,44 43,39.056 43,32.959 43,30.822 42.397,28.851 41.357,27.154 Z M 32,28 A 5,5 0 0 0 27,33 5,5 0 0 0 32,38 5,5 0 0 0 37,33 5,5 0 0 0 32,28 Z M 26.004,37.576 C 25.647,37.576 25.29,37.724 24.996,37.998 24.576,38.419 24.47,39.028 24.68,39.533 L 21.824,40.648 12.395,51.891 A 28,28 0 0 0 13.104,52.6 L 24.324,43.152 25.438,40.291 C 25.606,40.354 25.793,40.396 25.982,40.396 26.339,40.396 26.696,40.248 26.969,39.975 27.515,39.428 27.515,38.524 26.969,37.977 26.717,37.703 26.361,37.576 26.004,37.576 Z M 24.729,44.656 23.348,45.807 C 24.561,46.852 25.838,47.793 27.156,48.65 27.658,48.483 28.703,48.065 29.143,47.793 27.511,46.852 26.235,45.911 24.729,44.656 Z"/>
 <path style="fill:#ffffff" d="M 53.753,10.011 39.64,21.837 38.527,24.699 C 38.359,24.636 38.17,24.594 37.981,24.594 37.624,24.594 37.267,24.741 36.994,25.014 36.448,25.561 36.448,26.466 36.994,27.013 37.267,27.287 37.624,27.434 38.002,27.434 38.359,27.434 38.716,27.287 39.01,27.013 39.43,26.593 39.535,25.982 39.325,25.477 L 42.181,24.362 54.005,10.264 Z M 39.911,12.01 C 38.67,12.031 37.366,12.2 36.011,12.515 34.669,12.81 33.318,13.252 31.976,13.799 25.531,11.064 19.077,11.4 15.236,15.23 12.285,18.176 11.323,22.721 12.495,28.002 12.802,29.349 13.238,30.717 13.795,32.063 11.464,38.166 11.344,43.847 13.835,47.003 L 15.047,45.572 C 13.404,42.584 13.402,38.544 14.828,34.273 15.967,36.482 17.42,38.629 19.148,40.649 L 20.299,39.281 C 18.378,36.966 16.821,34.525 15.708,32.021 17.17,28.739 19.44,25.414 22.433,22.426 25.365,19.501 28.662,17.187 32.021,15.714 34.469,16.808 36.937,18.344 39.275,20.322 L 40.657,19.165 C 38.6,17.418 36.435,15.966 34.251,14.851 34.971,14.62 35.692,14.409 36.408,14.241 40.008,13.441 43.187,13.715 45.594,15.04 L 47.037,13.82 C 45.067,12.579 42.641,11.968 39.911,12.01 Z M 23.653,13.757 C 25.567,13.736 27.639,14.115 29.763,14.83 26.736,16.387 23.805,18.533 21.177,21.164 18.489,23.857 16.357,26.803 14.832,29.791 14.585,29.075 14.375,28.339 14.209,27.603 13.163,22.952 13.959,18.996 16.469,16.492 18.281,14.683 20.793,13.799 23.653,13.757 Z M 50.198,16.997 48.984,18.428 C 49.988,20.259 50.385,22.574 50.154,25.162 50.677,26.003 51.16,26.824 51.578,27.645 52.458,23.478 51.975,19.775 50.198,16.997 Z M 31.966,21.016 C 25.913,21.016 21.007,25.961 21.007,32.042 21.007,34.189 21.61,36.167 22.67,37.85 L 23.273,37.619 C 23.378,36.987 23.647,36.44 24.084,35.998 24.168,35.914 24.271,35.83 24.376,35.767 23.834,34.631 23.502,33.368 23.502,32.042 23.502,27.308 27.306,23.478 31.985,23.478 33.314,23.478 34.562,23.794 35.685,24.362 35.769,24.257 35.832,24.152 35.916,24.067 36.353,23.626 36.893,23.352 37.496,23.268 L 37.725,22.658 C 36.04,21.627 34.085,21.016 31.966,21.016 Z M 44.861,23.352 43.71,24.72 C 45.672,27.055 47.218,29.538 48.316,31.979 L 48.272,32.084 C 46.764,35.43 44.464,38.734 41.597,41.574 37.393,45.783 32.434,48.687 27.621,49.76 24.023,50.559 20.841,50.265 18.436,48.939 L 16.994,50.16 C 18.896,51.38 21.414,52.011 24.008,52.011 25.346,52.011 26.556,51.822 28.02,51.485 33.167,50.328 38.439,47.256 42.853,42.837 45.462,40.228 47.635,37.282 49.202,34.231 50.992,39.533 50.565,44.499 47.539,47.508 45.258,49.802 41.681,50.644 37.54,49.991 36.765,50.454 35.969,50.896 35.173,51.296 36.931,51.759 38.605,52.011 40.194,52.011 43.668,52.011 46.661,50.917 48.795,48.792 54.318,43.258 52.455,32.274 44.861,23.352 Z M 41.362,26.172 40.759,26.403 C 40.636,27.034 40.365,27.582 39.928,28.023 39.844,28.108 39.741,28.192 39.636,28.255 40.178,29.391 40.512,30.654 40.512,31.979 40.512,36.714 36.706,40.543 32.027,40.543 30.697,40.543 29.45,40.228 28.326,39.66 28.242,39.765 28.181,39.87 28.097,39.954 27.66,40.396 27.119,40.67 26.516,40.754 L 26.287,41.364 C 27.971,42.395 29.927,43.005 32.048,43.005 38.098,43.005 43.007,38.06 43.007,31.979 43.007,29.833 42.402,27.855 41.362,26.172 Z M 32.006,27.013 A 4.9999,4.9998 0 0 0 27.005,32 4.9999,4.9998 0 0 0 32.006,37.008 4.9999,4.9998 0 0 0 37.006,32 4.9999,4.9998 0 0 0 32.006,27.013 Z M 26.01,36.587 C 25.653,36.587 25.296,36.735 25.002,37.008 24.582,37.429 24.477,38.039 24.687,38.544 L 21.83,39.66 10.006,53.758 10.258,54.01 24.33,42.164 25.443,39.302 C 25.611,39.365 25.8,39.407 25.989,39.407 26.346,39.407 26.701,39.26 26.974,38.986 27.52,38.439 27.52,37.534 26.974,36.987 26.722,36.714 26.367,36.587 26.01,36.587 Z M 24.735,43.658 23.353,44.815 C 24.567,45.867 25.844,46.814 27.163,47.656 27.665,47.487 28.708,47.066 29.15,46.814 27.516,45.867 26.241,44.92 24.735,43.658 Z"/>
</svg>
